X: 37
T: Descendi in ortum meum
N: Derived from Ort2010-Descendi_in_ortum_meum.krn
C: Marbrianus de Orto
%%abc-version 2.0
%%abcx-abcm2ps-target-version 5.9.1 (29 Sep 2008)
%%abc-creator hum2abc beta
%%abcx-conversion-date 2019/02/17 07:28:38
%%abc-edited-by Jesse Rodin
%%abc-edited-by David Burn (Leuven U.)
%%abc-edited-by David Burn
%%abcx-initial-encoding-date 2012///
%%humdrum-veritas 957426792
%%humdrum-veritas-data 2625207278
%%linebreak <none>
%%barnumbers 0
L: 1/4
M: 2/1
Q: 1/2=120
%%staves [1 2 3 4]
V: 1 clef=treble
V: 2 clef=treble-8
V: 3 clef=treble-8
V: 4 clef=bass
K: C
[V:1] x8 | 
[V:2] G4B4- | 
[V:3] z8 | 
[V:4] G,,8 | 
[V:1] x8 | 
[V:2] B2AGd4 | 
[V:3] z4D4 | 
[V:4] B,,8 | 
[V:1] x8 | 
[V:2] G4z2c2- | 
[V:3] E8 | 
[V:4] C,8 | 
[V:1] x8 | 
[V:2] cBAGA4 | 
[V:3] F8 | 
[V:4] D,8 | 
[V:1] x8 | 
[V:2] GABcd2e2- | 
[V:3] G8 | 
[V:4] z8 | 
[V:1] x8 | 
[V:2] e2d4g2- | 
[V:3] z8 | 
[V:4] G,,8 | 
[V:1] x8 | 
[V:2] gfede4 | 
[V:3] z8 | 
[V:4] A,,8 | 
[V:1] x8 | 
[V:2] d4z4 | 
[V:3] z8 | 
[V:4] B,,8 | 
[V:1] x8 | 
[V:2] f6ed | 
[V:3] z4A4 | 
[V:4] D,8 | 
[V:1] x8 | 
[V:2] c2d2e4 | 
[V:3] c8 | 
[V:4] A,,8 | 
[V:1] x8 | 
[V:2] g8 | 
[V:3] G8 | 
[V:4] E,8 | 
[V:1] x8 | 
[V:2] d8 | 
[V:3] z4G4 | 
[V:4] G,8 | 
[V:1] x8 | 
[V:2] f4d2f2- | 
[V:3] A4B2d2- | 
[V:4] D,4B,,4 | 
[V:1] x8 | 
[V:2] f2edf4 | 
[V:3] dcA2d4 | 
[V:4] D,8 | 
[V:1] x8 | 
[V:2] e8 | 
[V:3] c2A4GF | 
[V:4] A,,4z2C,2- | 
[V:1] x8 | 
[V:2] z4z2c2 | 
[V:3] E2D2E4 | 
[V:4] C,2B,,2A,,2C,2 | 
[V:1] x8 | 
[V:2] d2f3ec2 | 
[V:3] D3EFGAB | 
[V:4] G,,2D,3E,F,G, | 
[V:1] x8 | 
[V:2] z2f6- | 
[V:3] c2d4c2 | 
[V:4] A,2B,2A,2F,2- | 
[V:1] x8 | 
[V:2] f2d4d2 | 
[V:3] d2B2A4 | 
[V:4] F,2G,2D,4 | 
[V:1] x8 | 
[V:2] B4z4 | 
[V:3] G4z4 | 
[V:4] G,,4z4 | 
[V:1] x8 | 
[V:2] B4A2B2 | 
[V:3] d8 | 
[V:4] G,4D,2G,2 | 
[V:1] x8 | 
[V:2] A4B4 | 
[V:3] d8 | 
[V:4] F,E,D,C,B,,4 | 
[V:1] x8 | 
[V:2] G2E3Cc2 | 
[V:3] e8- | 
[V:4] C,8 | 
[V:1] x8 | 
[V:2] B4c3B | 
[V:3] e8 | 
[V:4] E,4A,,2C,2- | 
[V:1] x8 | 
[V:2] AGA2E2A2 | 
[V:3] e8- | 
[V:4] C,B,,A,,G,,A,,4 | 
[V:1] x8 | 
[V:2] G4g4- | 
[V:3] e8 | 
[V:4] E,8 | 
[V:1] x8 | 
[V:2] g4z2G2- | 
[V:3] d8 | 
[V:4] G,4G,,4 | 
[V:1] x8 | 
[V:2] G2^F2G4 | 
[V:3] c4B4 | 
[V:4] A,,4G,,A,,B,,C, | 
[V:1] x8 | 
[V:2] z8 | 
[V:3] A3BcdB2 | 
[V:4] D,E,F,4G,2 | 
[V:1] x8 | 
[V:2] z8 | 
[V:3] A2c2B2A2- | 
[V:4] F,E,D,C,D,4 | 
[V:1] x8 | 
[V:2] z8 | 
[V:3] A2G4^F2 | 
[V:4] G,,4A,,4 | 
[V:1] x8 | 
[V:2] B3cded2- | 
[V:3] G8- | 
[V:4] G,,8- | 
[V:1] x8 | 
[V:2] d2g4fe | 
[V:3] G8- | 
[V:4] G,,8 | 
[V:1] x8 | 
[V:2] d2d2c4- | 
[V:3] G8 | 
[V:4] z4C,4- | 
[V:1] x8 | 
[V:2] c4A4 | 
[V:3] z8 | 
[V:4] C,4D,4 | 
[V:1] x8 | 
[V:2] c4c2c2 | 
[V:3] z8 | 
[V:4] C,4F,4- | 
[V:1] x8 | 
[V:2] c4f4 | 
[V:3] A4A4 | 
[V:4] F,2F,2F,4 | 
[V:1] x8 | 
[V:2] e4a4- | 
[V:3] c6c2 | 
[V:4] A,6G,2 | 
[V:1] x8 | 
[V:2] a2g6 | 
[V:3] c4z4 | 
[V:4] F,2E,2C,4 | 
[V:1] x8 | 
[V:2] f4g2e2- | 
[V:3] c4c4 | 
[V:4] F,4E,4- | 
[V:1] x8 | 
[V:2] e2defga2- | 
[V:3] B4A4 | 
[V:4] E,2G,2D,4 | 
[V:1] x8 | 
[V:2] a2g4^f2 | 
[V:3] B4c4 | 
[V:4] G,4A,4 | 
[V:1] x8 | 
[V:2] g8 | 
[V:3] d8 | 
[V:4] G,8 | 
[V:1] x8 | 
[V:2] e2g3fe2 | 
[V:3] c4c4 | 
[V:4] z4C,4 | 
[V:1] x8 | 
[V:2] d2c4B2 | 
[V:3] z4F4 | 
[V:4] B,,2C,2D,4 | 
[V:1] x8 | 
[V:2] c2e4dc | 
[V:3] E4F4 | 
[V:4] C,4A,,4 | 
[V:1] x8 | 
[V:2] d2e4dc | 
[V:3] G4C4 | 
[V:4] G,,4A,,4 | 
[V:1] x8 | 
[V:2] B4A4 | 
[V:3] z4c4 | 
[V:4] G,,2G,4F,2 | 
[V:1] x8 | 
[V:2] G4z4 | 
[V:3] B2c2d4 | 
[V:4] G,2C,4B,,2 | 
[V:1] x8 | 
[V:2] z2d4c2 | 
[V:3] c2A4G2 | 
[V:4] C,2D,2E,4 | 
[V:1] x8 | 
[V:2] d4z2c2 | 
[V:3] A2B2c4 | 
[V:4] D,4A,,4 | 
[V:1] x8 | 
[V:2] d2d2e2B2 | 
[V:3] B4E4 | 
[V:4] G,,4z2G,2 | 
[V:1] x8 | 
[V:2] c4z2d2 | 
[V:3] z2E2F2G2 | 
[V:4] F,2E,2D,2B,,2 | 
[V:1] x8 | 
[V:2] e2g4fe | 
[V:3] A2G2B2c2 | 
[V:4] A,,2E,4E,2 | 
[V:1] x8 | 
[V:2] f4g4- | 
[V:3] d4e2d2 | 
[V:4] D,4C,2G,2- | 
[V:1] x8 | 
[V:2] g2e2d4- | 
[V:3] B2c2A4 | 
[V:4] G,2C,2D,4 | 
[V:1] x8 ||  
[V:2] d8 ||  
[V:3] G8 ||  
[V:4] G,,8 ||  
[V:1]  [K:C] [K:clef=treble][M:2/1]x8 | 
[V:2]  [K:C] [K:clef=treble-8][M:2/1]z8 | 
[V:3]  [K:C] [K:clef=treble-8][M:2/1]z8 | 
[V:4]  [K:C] [K:clef=bass][M:2/1]D,4D,4 | 
[V:1] x8 | 
[V:2] z8 | 
[V:3] z8 | 
[V:4] E,4G,4- | 
[V:1] x8 | 
[V:2] z8 | 
[V:3] A4A4 | 
[V:4] G,2^F,E,F,4 | 
[V:1] x8 | 
[V:2] d4d4 | 
[V:3] B4d4- | 
[V:4] G,4G,4 | 
[V:1] x8 | 
[V:2] e4g4- | 
[V:3] d2cBc4 | 
[V:4] E,4E,4 | 
[V:1] x8 | 
[V:2] g2^fe^f4 | 
[V:3] d4d4 | 
[V:4] D,8 | 
[V:1] x8 | 
[V:2] g4g4 | 
[V:3] d4B4 | 
[V:4] G,,8 | 
[V:1] x8 | 
[V:2] e4e4 | 
[V:3] A8 | 
[V:4] A,,8 | 
[V:1] x8 | 
[V:2] d8 | 
[V:3] D3EF2G2 | 
[V:4] B,,8 | 
[V:1] x8 | 
[V:2] e8 | 
[V:3] A4G4 | 
[V:4] A,,4z4 | 
[V:1] x8 | 
[V:2] f4e4 | 
[V:3] F3GA4 | 
[V:4] z8 | 
[V:1] x8 | 
[V:2] d2g3fed | 
[V:3] z8 | 
[V:4] z8 | 
[V:1] x8 | 
[V:2] c2d4c2 | 
[V:3] z4A2A2 | 
[V:4] z8 | 
[V:1] x8 | 
[V:2] d4z4 | 
[V:3] B2d3cB2- | 
[V:4] G,4G,4 | 
[V:1] x8 | 
[V:2] z8 | 
[V:3] B2AGB2A2- | 
[V:4] E,4D,4 | 
[V:1] x8 | 
[V:2] z8 | 
[V:3] A2G2A2c2- | 
[V:4] E,4F,4 | 
[V:1] x8 | 
[V:2] z4d4 | 
[V:3] cBG3F_B2 | 
[V:4] E,4B,,2D,2- | 
[V:1] x8 | 
[V:2] d4c4 | 
[V:3] A2G4^F2 | 
[V:4] D,2C,B,,A,,4 | 
[V:1] x8 | 
[V:2] B6AG | 
[V:3] G4z4 | 
[V:4] G,,4z2G,2- | 
[V:1] x8 | 
[V:2] A4GABc | 
[V:3] z8 | 
[V:4] G,F,F,E,G,4 | 
[V:1] x8 | 
[V:2] d2e4dc | 
[V:3] z8 | 
[V:4] z8 | 
[V:1] x8 | 
[V:2] f2g4^f2 | 
[V:3] z4d4 | 
[V:4] z8 | 
[V:1] x8 | 
[V:2] g4d4 | 
[V:3] d3cB4 | 
[V:4] G,4G,4 | 
[V:1] x8 | 
[V:2] f4g4- | 
[V:3] d4e4- | 
[V:4] F,4E,4- | 
[V:1] x8 | 
[V:2] g4f3e | 
[V:3] e4c2dc | 
[V:4] E,4F,4 | 
[V:1] x8 | 
[V:2] d3ccBBA | 
[V:3] BAG4F2 | 
[V:4] G,2F,E,D,2D,2 | 
[V:1] x8 | 
[V:2] c4z2c2 | 
[V:3] G2c4BA | 
[V:4] C,4F,4- | 
[V:1] x8 | 
[V:2] A4z2E2 | 
[V:3] d4c2CD | 
[V:4] F,2E,D,A,2G,2 | 
[V:1] x8 | 
[V:2] G4F2G2 | 
[V:3] EFG2A2B2 | 
[V:4] C,3B,,A,,2G,,2 | 
[V:1] x8 | 
[V:2] c4d2G2 | 
[V:3] A4z2c2- | 
[V:4] A,,4D,2E,2 | 
[V:1] x8 | 
[V:2] c2B2cdef | 
[V:3] cde4dc | 
[V:4] F,2G,2A,4 | 
[V:1] x8 | 
[V:2] g8 | 
[V:3] d2e2z2E2 | 
[V:4] G,3E,E,4 | 
[V:1] x8 | 
[V:2] f2e2gfed | 
[V:3] F2G2E4 | 
[V:4] z2E,3D,C,B,, | 
[V:1] x8 | 
[V:2] c4d4 | 
[V:3] F2G2A4 | 
[V:4] A,,2E,2D,4 | 
[V:1] x8 | 
[V:2] z2G2F4 | 
[V:3] G2d3cBA | 
[V:4] G,,4D,3C, | 
[V:1] x8 | 
[V:2] G4z2d2- | 
[V:3] B2E3FGA | 
[V:4] B,,A,,G,,2A,,2G,,2- | 
[V:1] x8 | 
[V:2] d2c2B2d2- | 
[V:3] B2c2d4 | 
[V:4] G,,2A,,2B,,4 | 
[V:1] x8 | 
[V:2] d2c2d4- | 
[V:3] G4A4 | 
[V:4] E,4D,4 | 
[V:1] x8 |]  
[V:2] d8 |]  
[V:3] G8 |]  
[V:4] G,,8 |]  



